icon-svg/rede_globo.svg

<svg xmlns="http://www.w3.org/2000/svg" viewBox="0 0 24 24"><path fill="#44739e" d="M12 7.973a4.027 4.027 0 1 0 0 8.054 4.027 4.027 0 1 0 0-8.054M12 2a10 10 0 1 0 10 10A10.013 10.013 0 0 0 12 2m6.818 14.719a65 65 0 0 1-6.818.274 65 65 0 0 1-6.818-.274c-.627-.066-.964-.221-1.032-.9C4.026 14.58 4.018 13.3 4.018 12s.008-2.58.132-3.822c.068-.676.4-.831 1.032-.9A65 65 0 0 1 12 7.007a65 65 0 0 1 6.818.274c.627.066.964.221 1.032.9.124 1.242.132 2.524.132 3.822s-.008 2.58-.132 3.822c-.068.675-.405.828-1.032.894"/></svg>

<?xml version="1.0" encoding="UTF-8"?>
<svg width="24px" fill="#44739e" height="24px" viewBox="0 0 24 24" version="1.1" xmlns="http://www.w3.org/2000/svg" xmlns:xlink="http://www.w3.org/1999/xlink">
            <path d="m 12,7.973 a 4.027,4.027 0 1 0 0,8.054 v 0 A 4.027,4.027 0 1 0 12,7.973 Z M 12,2 A 10,10 0 1 0 22,12 10.013,10.013 0 0 0 12,2 Z m 6.818,14.719 A 65.267,65.267 0 0 1 12,16.993 65.267,65.267 0 0 1 5.182,16.719 C 4.555,16.653 4.218,16.498 4.15,15.819 4.026,14.58 4.018,13.3 4.018,12 4.018,10.7 4.026,9.42 4.15,8.178 4.218,7.502 4.55,7.347 5.182,7.278 A 65.267,65.267 0 0 1 12,7.007 65.267,65.267 0 0 1 18.818,7.281 c 0.627,0.066 0.964,0.221 1.032,0.9 0.124,1.242 0.132,2.524 0.132,3.822 0,1.298 -0.008,2.58 -0.132,3.822 -0.068,0.675 -0.405,0.828 -1.032,0.894 z"/>

</svg>
